src/next/cmd/lc_attributepagesize.svg

<svg enable-background="new 0 0 128 128" height="24" viewBox="0 0 24 24" width="24" xmlns="http://www.w3.org/2000/svg" xmlns:xlink="http://www.w3.org/1999/xlink"><linearGradient id="a" gradientTransform="matrix(-.13175279 0 0 .07736921 4.142755 16.643404)" gradientUnits="userSpaceOnUse" x1="12.131731" x2="8.000006" xlink:href="#b" y1="120.57536" y2="-105.05704"/><linearGradient id="b"><stop offset="0" stop-color="#0968ef"/><stop offset="1" stop-color="#aecffc"/></linearGradient><linearGradient id="c" gradientTransform="matrix(-.13175279 0 0 -.07736921 4.142755 7.636477)" gradientUnits="userSpaceOnUse" x1="12.131731" x2="7.983612" xlink:href="#b" y1="120.57536" y2="-118.6722"/><radialGradient id="d" cx="102" cy="112.3047" gradientTransform="matrix(.94807 0 0 .9510679 3.32352 5.274458)" gradientUnits="userSpaceOnUse" r="139.55859"><stop offset="0" stop-color="#fafafa"/><stop offset=".2722" stop-color="#fff"/><stop offset=".5313" stop-color="#fafafa"/><stop offset=".8449" stop-color="#ebecec"/><stop offset="1" stop-color="#e1e2e3"/></radialGradient><radialGradient id="e" cx="100.80984" cy="112.93461" gradientUnits="userSpaceOnUse" r="135.18756"><stop offset="0" stop-color="#f1f1f1"/><stop offset=".24349999" stop-color="#fcfcfc"/><stop offset=".2722" stop-color="#fff"/></radialGradient><filter id="f"><feGaussianBlur stdDeviation="1.0394514"/></filter><filter id="g"><feGaussianBlur stdDeviation=".50063244"/></filter><g transform="matrix(.171875 0 0 .171875 3 2)"><g stroke-width="1.006155"><path d="m15.531998-1.7102652.05394 68.8372182-.01953 57.199217h.04102 61.683594l40.928078-.008v-34.941036-44.515625l-.0344-46.5794061-40.92808.00763h-61.683606z" filter="url(#f)" opacity=".553425"/><path d="m15.531998-1.6790152.05394 68.8215932-.01953 57.183592h.04102 61.683594l40.928078-.008v-34.941036-44.484375l-.0344-46.5794061-40.92808.00763h-61.683606z" filter="url(#f)" opacity=".306849"/><path d="m15.531998-.71026564.05394 68.33721864-.01953 56.699217h.04102 61.683594l40.928078-.008v-34.941036-43.515625l-.0344-46.57940646-40.92808.007632h-61.683606z" filter="url(#f)" opacity=".306849"/></g><path d="m24.871636-.92672605.04836 121.78991605 58.676001-.0001c.53 0 1.039-.211 1.414-.586l37.217663-31.773541c.375-.375.586-.884.586-1.414l.0471-88.02388194z" filter="url(#g)" opacity=".89589" transform="matrix(1.0090419 0 0 1.003276 -7.641977 .929762)"/><path d="m17.453873.00067236.04221 66.91338964-.0078 55.275388h.01563 59.25586l39.603869-.008-.0586-55.27539.0242-66.91338946-39.603872.00763182h-59.25586z" fill="url(#e)"/><path d="m24.031998 5.8737194c-.522387 0-.947265.427133-.947265.951172l.196517 60.0071396-.162109 48.369139c0 .52404.424878.95117.947265.95117h.322266 52.099609c.02563 0 .04875-.0135.07422-.0156l33.135119-.0156c.52333 0 .94727-.42714.94727-.95118l.26562-26.374998.15625-.152343c.17729-.17785.27734-.421743.27734-.671875l-.21289-21.146485.21289-21.146484c0-.250132-.10005-.495978-.27734-.673828l-.15625-.152344-.30003-38.0129995c0-.524039-.42394-.951172-.94727-.951172l-33.139023-.0001981c-.02409-.0019-.04608-.013652-.07031-.01367h-52.099613z" fill="url(#d)"/></g><g stroke-width=".1875"><path d="m0 3.6331131 1.9999988-1.6331005.0000019 9.9999874h.9999993l-.0000019-9.9999874 1.9999988 1.6076768v-1.0887338l-2.0850561-2.1520436h-.8298847l-2.0850561 2.1774673z" fill="url(#c)"/><path d="m0 20.366901 1.9999988 1.633102.0000019-10.000003h.9999993l-.0000019 10.000003 1.999999-1.658526v1.088736l-2.0850563 2.20289h-.8298847l-2.0850561-2.177467z" fill="url(#a)"/></g></svg>

<?xml version="1.0" encoding="UTF-8" standalone="no"?>
<svg
   xmlns:dc="http://purl.org/dc/elements/1.1/"
   xmlns:cc="http://creativecommons.org/ns#"
   xmlns:rdf="http://www.w3.org/1999/02/22-rdf-syntax-ns#"
   xmlns:svg="http://www.w3.org/2000/svg"
   xmlns="http://www.w3.org/2000/svg"
   xmlns:xlink="http://www.w3.org/1999/xlink"
   xmlns:sodipodi="http://sodipodi.sourceforge.net/DTD/sodipodi-0.dtd"
   xmlns:inkscape="http://www.inkscape.org/namespaces/inkscape"
   enable-background="new 0 0 128 128"
   height="24"
   viewBox="0 0 24 24"
   width="24"
   version="1.1"
   id="svg72"
   sodipodi:docname="lc_attributepagesize.svg"
   inkscape:version="0.92.4 (unknown)"
   inkscape:export-filename="/home/rizmut/Dokumen/Rizmut/Github/libreoffice-style-karasa-jaga/build/next/cmd/lc_attributepagesize.png"
   inkscape:export-xdpi="95.800003"
   inkscape:export-ydpi="95.800003">
  <metadata
     id="metadata78">
    <rdf:RDF>
      <cc:Work
         rdf:about="">
        <dc:format>image/svg+xml</dc:format>
        <dc:type
           rdf:resource="http://purl.org/dc/dcmitype/StillImage" />
        <dc:title></dc:title>
      </cc:Work>
    </rdf:RDF>
  </metadata>
  <defs
     id="defs76">
    <linearGradient
       id="e"
       gradientTransform="matrix(-0.13175279,0,0,0.07736921,4.1427553,16.643404)"
       gradientUnits="userSpaceOnUse"
       x1="12.131731"
       x2="8.0000057"
       xlink:href="#a-3"
       y1="120.57536"
       y2="-105.05704" />
    <linearGradient
       id="a-3">
      <stop
         offset="0"
         stop-color="#0968ef"
         id="stop2-6" />
      <stop
         offset="1"
         stop-color="#aecffc"
         id="stop4-7" />
    </linearGradient>
    <linearGradient
       id="d-5"
       gradientTransform="matrix(-0.13175279,0,0,-0.07736921,4.1427553,7.6364771)"
       gradientUnits="userSpaceOnUse"
       x1="12.131731"
       x2="7.9836121"
       xlink:href="#a-3"
       y1="120.57536"
       y2="-118.6722" />
  </defs>
  <sodipodi:namedview
     pagecolor="#ffffff"
     bordercolor="#666666"
     borderopacity="1"
     objecttolerance="10"
     gridtolerance="10"
     guidetolerance="10"
     inkscape:pageopacity="0"
     inkscape:pageshadow="2"
     inkscape:window-width="1366"
     inkscape:window-height="714"
     id="namedview74"
     showgrid="true"
     inkscape:zoom="13.906433"
     inkscape:cx="0.063280687"
     inkscape:cy="15.904517"
     inkscape:window-x="0"
     inkscape:window-y="28"
     inkscape:window-maximized="1"
     inkscape:current-layer="svg72">
    <inkscape:grid
       type="xygrid"
       id="grid80" />
  </sodipodi:namedview>
  <radialGradient
     id="a"
     cx="102"
     cy="112.3047"
     gradientTransform="matrix(0.94807,0,0,0.9510679,3.32352,5.274458)"
     gradientUnits="userSpaceOnUse"
     r="139.55859">
    <stop
       offset="0"
       stop-color="#fafafa"
       id="stop2" />
    <stop
       offset=".2722"
       stop-color="#fff"
       id="stop4" />
    <stop
       offset=".5313"
       stop-color="#fafafa"
       id="stop6" />
    <stop
       offset=".8449"
       stop-color="#ebecec"
       id="stop8" />
    <stop
       offset="1"
       stop-color="#e1e2e3"
       id="stop10" />
  </radialGradient>
  <radialGradient
     id="b"
     cx="100.80984"
     cy="112.93461"
     gradientUnits="userSpaceOnUse"
     r="135.18756">
    <stop
       offset="0"
       stop-color="#f1f1f1"
       id="stop13" />
    <stop
       offset=".24349999"
       stop-color="#fcfcfc"
       id="stop15" />
    <stop
       offset=".2722"
       stop-color="#fff"
       id="stop17" />
  </radialGradient>
  <filter
     id="c">
    <feGaussianBlur
       stdDeviation="1.0394514"
       id="feGaussianBlur20" />
  </filter>
  <filter
     id="d">
    <feGaussianBlur
       stdDeviation=".50063244"
       id="feGaussianBlur23" />
  </filter>
  <g
     transform="matrix(0.171875,0,0,0.171875,3,2)"
     id="g70">
    <g
       id="g32"
       style="stroke-width:1.00615501">
      <path
         d="m 15.531998,-1.7102652 0.05394,68.8372182 -0.01953,57.199217 h 0.04102 61.683594 l 40.928078,-0.008 V 89.377134 44.861509 l -0.0344,-46.5794061 -40.92808,0.00763 H 15.573014 Z"
         id="path26"
         inkscape:connector-curvature="0"
         style="opacity:0.55342503;filter:url(#c)" />
      <path
         d="m 15.531998,-1.6790152 0.05394,68.8215932 -0.01953,57.183592 h 0.04102 61.683594 l 40.928078,-0.008 V 89.377134 44.892759 l -0.0344,-46.5794061 -40.92808,0.00763 H 15.573014 Z"
         id="path28"
         inkscape:connector-curvature="0"
         style="opacity:0.30684904;filter:url(#c)" />
      <path
         d="m 15.531998,-0.71026564 0.05394,68.33721864 -0.01953,56.699217 h 0.04102 61.683594 l 40.928078,-0.008 V 89.377134 45.861509 l -0.0344,-46.57940646 -40.92808,0.007632 H 15.573014 Z"
         id="path30"
         inkscape:connector-curvature="0"
         style="opacity:0.30684904;filter:url(#c)" />
    </g>
    <path
       d="m 24.871636,-0.92672605 0.04836,121.78991605 58.676001,-1e-4 c 0.53,0 1.039,-0.211 1.414,-0.586 L 122.22766,88.503549 c 0.375,-0.375 0.586,-0.884 0.586,-1.414 l 0.0471,-88.02388194 z"
       transform="matrix(1.0090419,0,0,1.003276,-7.641977,0.929762)"
       id="path34"
       inkscape:connector-curvature="0"
       style="opacity:0.89589;filter:url(#d)" />
    <path
       d="m 17.453873,6.7236e-4 0.04221,66.91338964 -0.0078,55.275388 h 0.01563 59.25586 l 39.603869,-0.008 -0.0586,-55.27539 0.0242,-66.91338946 -39.603872,0.00763182 h -59.25586 z"
       id="path36"
       style="fill:url(#b)"
       inkscape:connector-curvature="0" />
    <path
       d="m 24.031998,5.8737194 c -0.522387,0 -0.947265,0.427133 -0.947265,0.951172 L 23.28125,66.832031 23.119141,115.20117 c 0,0.52404 0.424878,0.95117 0.947265,0.95117 h 0.322266 52.099609 c 0.02563,0 0.04875,-0.0135 0.07422,-0.0156 l 33.135119,-0.0156 c 0.52333,0 0.94727,-0.42714 0.94727,-0.95118 l 0.26562,-26.374998 0.15625,-0.152343 c 0.17729,-0.17785 0.27734,-0.421743 0.27734,-0.671875 l -0.21289,-21.146485 0.21289,-21.146484 c 0,-0.250132 -0.10005,-0.495978 -0.27734,-0.673828 l -0.15625,-0.152344 -0.30003,-38.0129995 c 0,-0.524039 -0.42394,-0.951172 -0.94727,-0.951172 L 76.524187,5.8872334 c -0.02409,-0.0019 -0.04608,-0.013652 -0.07031,-0.01367 H 24.354264 Z"
       id="path38"
       style="fill:url(#a)"
       inkscape:connector-curvature="0" />
  </g>
  <path
     inkscape:connector-curvature="0"
     style="fill:url(#d-5);stroke-width:0.1875"
     d="M 0,3.6331131 1.9999988,2.0000126 2.0000007,12 H 3 l -1.9e-6,-9.9999874 1.9999988,1.6076768 V 2.5189556 L 2.9149408,0.366912 H 2.0850561 L 0,2.5443793 Z"
     id="path31"
     sodipodi:nodetypes="ccccccccccc" />
  <path
     inkscape:connector-curvature="0"
     style="fill:url(#e);stroke-width:0.1875"
     d="M 0,20.366901 1.9999988,22.000003 2.0000007,12 H 3 l -1.9e-6,10.000003 1.999999,-1.658526 v 1.088736 l -2.0850563,2.20289 H 2.0850561 L 0,21.455636 Z"
     id="path33"
     sodipodi:nodetypes="ccccccccccc" />
</svg>
